www/assets/icons/plumbing.svg

<svg width="24" height="24" viewBox="0 0 24 24" xmlns="http://www.w3.org/2000/svg" fill='currentColor'><path d="M19.2788 4.9301L17.1588 2.8101C16.3788 2.0301 15.1088 2.0301 14.3288 2.8101L11.4988 5.6401L13.6187 7.7601L15.7388 5.6401L19.2788 9.1801C20.4488 8.0001 20.4488 6.1001 19.2788 4.9301Z"/><path d="M5.48875 13.7701C6.07875 14.3601 7.02875 14.3601 7.60875 13.7701L10.0788 11.3001L7.95875 9.1701L5.48875 11.6401C4.89875 12.2301 4.89875 13.1801 5.48875 13.7701Z"/><path d="M15.0387 7.7601L13.6187 9.1801L10.4387 6.0001C9.84875 5.4001 8.89875 5.4001 8.31875 5.9901C7.72875 6.5801 7.72875 7.5301 8.31875 8.1101L11.4988 11.2901L4.42875 18.3601C3.64875 19.1401 3.64875 20.4101 4.42875 21.1901C5.20875 21.9701 6.47875 21.9701 7.25875 21.1901L16.4488 12.0001C16.8388 12.3901 17.4688 12.3901 17.8588 12.0001C18.2488 11.6101 18.2488 10.9801 17.8588 10.5901L15.0387 7.7601Z"/></svg>

<svg xmlns="http://www.w3.org/2000/svg" width="24" height="24" viewBox="0 0 24 24" fill='currentColor'><path d="m19.279 4.93-2.12-2.12c-.78-.78-2.05-.78-2.83 0l-2.83 2.83 2.12 2.12 2.12-2.12 3.54 3.54a3.01 3.01 0 0 0 0-4.25m-13.79 8.84c.59.59 1.54.59 2.12 0l2.47-2.47-2.12-2.13-2.47 2.47c-.59.59-.59 1.54 0 2.13"/><path d="m15.039 7.76-1.42 1.42L10.439 6c-.59-.6-1.54-.6-2.12-.01a1.49 1.49 0 0 0 0 2.12l3.18 3.18-7.07 7.07c-.78.78-.78 2.05 0 2.83s2.05.78 2.83 0l9.19-9.19a.996.996 0 1 0 1.41-1.41z"/></svg>
